src/assets/filled/Bag2.svg

<svg width="24" height="24" viewBox="0 0 24 24"  xmlns="http://www.w3.org/2000/svg">
<path d="M19.96 8.96039C19.29 8.22039 18.28 7.79039 16.88 7.64039V6.88039C16.88 5.51039 16.3 4.19039 15.28 3.27039C14.25 2.33039 12.91 1.89039 11.52 2.02039C9.12999 2.25039 7.11999 4.56039 7.11999 7.06039V7.64039C5.71999 7.79039 4.70999 8.22039 4.03999 8.96039C3.06999 10.0404 3.09999 11.4804 3.20999 12.4804L3.90999 18.0504C4.11999 20.0004 4.90999 22.0004 9.20999 22.0004H14.79C19.09 22.0004 19.88 20.0004 20.09 18.0604L20.79 12.4704C20.9 11.4804 20.92 10.0404 19.96 8.96039ZM11.66 3.41039C12.66 3.32039 13.61 3.63039 14.35 4.30039C15.08 4.96039 15.49 5.90039 15.49 6.88039V7.58039H8.50999V7.06039C8.50999 5.28039 9.97999 3.57039 11.66 3.41039ZM8.41999 13.1504H8.40999C7.85999 13.1504 7.40999 12.7004 7.40999 12.1504C7.40999 11.6004 7.85999 11.1504 8.40999 11.1504C8.96999 11.1504 9.41999 11.6004 9.41999 12.1504C9.41999 12.7004 8.96999 13.1504 8.41999 13.1504ZM15.42 13.1504H15.41C14.86 13.1504 14.41 12.7004 14.41 12.1504C14.41 11.6004 14.86 11.1504 15.41 11.1504C15.97 11.1504 16.42 11.6004 16.42 12.1504C16.42 12.7004 15.97 13.1504 15.42 13.1504Z" />
</svg>

<?xml version="1.0" encoding="UTF-8"?>
<svg width="24" height="24" viewBox="0 0 24 24" xmlns="http://www.w3.org/2000/svg">
 <path d="m19.96 8.9604c-0.67-0.74-1.68-1.17-3.08-1.32v-0.76c0-1.37-0.58-2.69-1.6-3.61-1.03-0.94-2.37-1.38-3.76-1.25-2.39 0.23-4.4 2.54-4.4 5.04v0.58c-1.4 0.15-2.41 0.58-3.08 1.32-0.97 1.08-0.94 2.52-0.83 3.52l0.7 5.57c0.21 1.95 1 3.95 5.3 3.95h5.58c4.3 0 5.09-2 5.3-3.94l0.7-5.59c0.11-0.99 0.13-2.43-0.83-3.51zm-8.3-5.55c1-0.09 1.95 0.22 2.69 0.89 0.73 0.66 1.14 1.6 1.14 2.58v0.7h-6.98v-0.52c0-1.78 1.47-3.49 3.15-3.65zm-3.24 9.74h-0.01c-0.55 0-1-0.45-1-1s0.45-1 1-1c0.56 0 1.01 0.45 1.01 1s-0.45 1-1 1zm7 0h-0.01c-0.55 0-1-0.45-1-1s0.45-1 1-1c0.56 0 1.01 0.45 1.01 1s-0.45 1-1 1z"/>
</svg>
